svgs/sharp-solid/users-viewfinder.svg

<svg xmlns="http://www.w3.org/2000/svg" viewBox="0 0 640 512"><!--! Font Awesome Pro 6.6.0 by @fontawesome - https://fontawesome.com License - https://fontawesome.com/license (Commercial License) Copyright 2024 Fonticons, Inc. --><path d="M0 0L24 0 136 0l24 0 0 48-24 0L48 48l0 88 0 24L0 160l0-24L0 24 0 0zM175.8 128a48 48 0 1 1 0 96 48 48 0 1 1 0-96zm41.1 128l-7.3 21.9L190.3 336 96 336l24-80 96.9 0zM544 336l-94.3 0-19.4-58.1L423.1 256l96.9 0 24 80zm-128 0l16 48-224 0 16-48 16-48 17.6 0 124.8 0 17.6 0 16 48zm48-208a48 48 0 1 1 0 96 48 48 0 1 1 0-96zM256 192a64 64 0 1 1 128 0 64 64 0 1 1 -128 0zM616 0l24 0 0 24 0 112 0 24-48 0 0-24 0-88-88 0-24 0 0-48 24 0L616 0zM0 512l0-24L0 376l0-24 48 0 0 24 0 88 88 0 24 0 0 48-24 0L24 512 0 512zm616 0l-112 0-24 0 0-48 24 0 88 0 0-88 0-24 48 0 0 24 0 112 0 24-24 0z"/></svg>

<svg xmlns="http://www.w3.org/2000/svg" viewBox="0 0 640 512"><!--! Font Awesome Pro 6.4.2 by @fontawesome - https://fontawesome.com License - https://fontawesome.com/license (Commercial License) Copyright 2023 Fonticons, Inc. --><path d="M0 0H24 136h24V48H136 48v88 24H0V136 24 0zM175.8 128a48 48 0 1 1 0 96 48 48 0 1 1 0-96zm41.1 128l-7.3 21.9L190.3 336H96l24-80h96.9zM544 336H449.7l-19.4-58.1L423.1 256H520l24 80zm-128 0l16 48H208l16-48 16-48h17.6H382.4 400l16 48zm48-208a48 48 0 1 1 0 96 48 48 0 1 1 0-96zM256 192a64 64 0 1 1 128 0 64 64 0 1 1 -128 0zM616 0h24V24 136v24H592V136 48H504 480V0h24H616zM0 512V488 376 352H48v24 88h88 24v48H136 24 0zm616 0H504 480V464h24 88V376 352h48v24V488v24H616z"/></svg>
